modules/coreui-icons-free/icons/truck.svg

<!-- Generated by IcoMoon.io -->
<svg version="1.1" xmlns="http://www.w3.org/2000/svg" width="24" height="24" viewBox="0 0 24 24">
<title>truck</title>
<path d="M23.047 9.973l-2.333-3.333c-0.275-0.389-0.723-0.64-1.229-0.64h-3.735v-2.25c-0.001-0.828-0.672-1.499-1.5-1.5h-12c-0.828 0.001-1.499 0.672-1.5 1.5v15.375h2.488c0.276 1.502 1.575 2.625 3.137 2.625s2.861-1.123 3.134-2.605l0.003-0.020h4.976c0.276 1.502 1.575 2.625 3.137 2.625s2.861-1.123 3.134-2.605l0.003-0.020h2.488v-8.507c0-0.001 0-0.001 0-0.002 0-0.241-0.076-0.464-0.206-0.647l0.002 0.003zM2.25 3.75h12v8.25h-12l-0.001-8.25zM6.375 20.25c-0.932 0-1.688-0.756-1.688-1.688s0.756-1.688 1.688-1.688c0.932 0 1.688 0.756 1.688 1.688v0c-0.001 0.932-0.756 1.686-1.687 1.688h-0zM17.625 20.25c-0.932 0-1.688-0.756-1.688-1.688s0.756-1.688 1.688-1.688c0.932 0 1.688 0.756 1.688 1.688v0c-0.001 0.932-0.756 1.686-1.687 1.688h-0zM21.75 17.625h-1.078c-0.414-1.314-1.621-2.25-3.047-2.25s-2.633 0.936-3.040 2.227l-0.006 0.023h-5.157c-0.414-1.314-1.621-2.25-3.047-2.25s-2.633 0.936-3.040 2.227l-0.006 0.023h-1.078v-4.125h19.5zM21.75 12h-6v-4.5h3.735l2.265 3.236z"></path>
</svg>

<svg xmlns="http://www.w3.org/2000/svg" width="24" height="24" viewBox="0 0 24 24"><path d="M23.047 9.973L20.714 6.64A1.501 1.501 0 0019.485 6H15.75V3.75a1.502 1.502 0 00-1.5-1.5h-12a1.502 1.502 0 00-1.5 1.5v15.375h2.488a3.187 3.187 0 006.271.02l.003-.02h4.976a3.187 3.187 0 006.271.02l.003-.02h2.488v-8.507-.002c0-.241-.076-.464-.206-.647l.002.003zM2.25 3.75h12V12h-12l-.001-8.25zm4.125 16.5a1.688 1.688 0 111.688-1.688 1.69 1.69 0 01-1.687 1.688zm11.25 0a1.688 1.688 0 111.688-1.688 1.69 1.69 0 01-1.687 1.688zm4.125-2.625h-1.078c-.414-1.314-1.621-2.25-3.047-2.25s-2.633.936-3.04 2.227l-.006.023H9.422c-.414-1.314-1.621-2.25-3.047-2.25s-2.633.936-3.04 2.227l-.006.023H2.251V13.5h19.5zm0-5.625h-6V7.5h3.735l2.265 3.236z"/></svg>
